icons/lines/eye-slash.svg

<svg xmlns="http://www.w3.org/2000/svg" width="24" height="24" viewBox="0 0 24 24" fill="none" stroke="currentColor" stroke-width="2" stroke-linecap="round" stroke-linejoin="round" >
  <path d="M14.5299 9.47004L9.46992 14.53C8.81992 13.88 8.41992 12.99 8.41992 12C8.41992 10.02 10.0199 8.42004 11.9999 8.42004C12.9899 8.42004 13.8799 8.82004 14.5299 9.47004Z"/>
  <path d="M17.8198 5.76998C16.0698 4.44998 14.0698 3.72998 11.9998 3.72998C8.46984 3.72998 5.17984 5.80998 2.88984 9.40998C1.98984 10.82 1.98984 13.19 2.88984 14.6C3.67984 15.84 4.59984 16.91 5.59984 17.77"/>
  <path d="M8.41992 19.5301C9.55992 20.0101 10.7699 20.2701 11.9999 20.2701C15.5299 20.2701 18.8199 18.1901 21.1099 14.5901C22.0099 13.1801 22.0099 10.8101 21.1099 9.40005C20.7799 8.88005 20.4199 8.39005 20.0499 7.93005"/>
  <path d="M15.5099 12.7C15.2499 14.11 14.0999 15.26 12.6899 15.52"/>
  <path d="M9.47 14.53L2 22"/>
  <path d="M21.9998 2L14.5298 9.47"/>
  </svg>

<svg xmlns="http://www.w3.org/2000/svg" width="24" height="24" viewBox="0 0 24 24" fill="none" stroke="currentColor" stroke-width="2" stroke-linecap="round" stroke-linejoin="round">
  <path d="M15.51 12.7a3.565 3.565 0 0 1-2.82 2.82" />
  <path d="M17.82 5.77C16.07 4.45 14.07 3.73 12 3.73c-3.53 0-6.82 2.08-9.11 5.68-.9 1.41-.9 3.78 0 5.19.79 1.24 1.71 2.31 2.71 3.17" />
  <path d="M2 22 22 2" />
  <path d="M8.42 19.53a9.2 9.2 0 0 0 3.58.74c3.53 0 6.82-2.08 9.11-5.68.9-1.41.9-3.78 0-5.19a16 16 0 0 0-1.06-1.47" />
  <path d="M9.47 14.53a1 1 0 1 1 5.06-5.06" />
</svg>
